icons/format_shapes_black_24dp.svg

<svg xmlns="http://www.w3.org/2000/svg" height="24px" viewBox="0 0 24 24" width="24px" fill="#000000"><path d="M0 0h24v24H0z" fill="none"/><path d="M23 7V1h-6v2H7V1H1v6h2v10H1v6h6v-2h10v2h6v-6h-2V7h2zM3 3h2v2H3V3zm2 18H3v-2h2v2zm12-2H7v-2H5V7h2V5h10v2h2v10h-2v2zm4 2h-2v-2h2v2zM19 5V3h2v2h-2zm-5.27 9h-3.49l-.73 2H7.89l3.4-9h1.4l3.41 9h-1.63l-.74-2zm-3.04-1.26h2.61L12 8.91l-1.31 3.83z"/></svg>

<?xml version="1.0" encoding="UTF-8" standalone="no"?>
<svg
   height="24px"
   viewBox="0 0 24 24"
   width="24px"
   fill="#000000"
   version="1.1"
   id="svg1109"
   sodipodi:docname="format_shapes_black_24dp.svg"
   inkscape:version="1.1.1 (3bf5ae0d25, 2021-09-20, custom)"
   xmlns:inkscape="http://www.inkscape.org/namespaces/inkscape"
   xmlns:sodipodi="http://sodipodi.sourceforge.net/DTD/sodipodi-0.dtd"
   xmlns="http://www.w3.org/2000/svg"
   xmlns:svg="http://www.w3.org/2000/svg">
  <defs
     id="defs1113" />
  <sodipodi:namedview
     id="namedview1111"
     pagecolor="#ffffff"
     bordercolor="#cccccc"
     borderopacity="1"
     inkscape:pageshadow="0"
     inkscape:pageopacity="1"
     inkscape:pagecheckerboard="0"
     showgrid="false"
     inkscape:zoom="30.916667"
     inkscape:cx="14.215633"
     inkscape:cy="12.016173"
     inkscape:window-width="1661"
     inkscape:window-height="931"
     inkscape:window-x="0"
     inkscape:window-y="0"
     inkscape:window-maximized="1"
     inkscape:current-layer="svg1109" />
  <path
     d="M0 0h24v24H0z"
     fill="none"
     id="path1105" />
  <path
     d="M 23,7 V 1 H 17 V 3 H 7 V 1 H 1 V 7 H 3 V 17 H 1 v 6 h 6 v -2 h 10 v 2 h 6 V 17 H 21 V 7 Z M 3,3 H 5 V 5 H 3 Z M 5,21 H 3 V 19 H 5 Z M 17,19 H 7 V 17 H 5 V 7 H 7 V 5 h 10 v 2 h 2 v 10 h -2 z m 4,2 h -2 v -2 h 2 z M 19,5 V 3 h 2 v 2 z"
     id="path1107"
     sodipodi:nodetypes="cccccccccccccccccccccccccccccccccccccccccccccccccccccc" />
  <path
     d="M 23,7 V 1 H 17 V 3 H 7 V 1 H 1 V 7 H 3 V 17 H 1 v 6 h 6 v -2 h 10 v 2 h 6 V 17 H 21 V 7 Z M 3,3 H 5 V 5 H 3 Z M 5,21 H 3 V 19 H 5 Z M 17,19 H 7 V 17 H 5 V 7 H 7 V 5 h 10 v 2 h 2 v 10 h -2 z m 4,2 h -2 v -2 h 2 z M 19,5 V 3 h 2 v 2 z"
     id="path2475"
     sodipodi:nodetypes="cccccccccccccccccccccccccccccccccccccccccccccccccccccc"
     style="fill:#808080;fill-opacity:1" />
</svg>
